src/images/icons/home-icon.svg

<svg width="18" height="18" viewBox="0 0 18 18" fill="none" xmlns="http://www.w3.org/2000/svg">
<path fill-rule="evenodd" clip-rule="evenodd" d="M9.32454 3.047C9.11365 2.97848 8.88649 2.97848 8.6756 3.047C8.60177 3.07099 8.4964 3.12483 8.30229 3.28962C8.10149 3.46008 7.8591 3.70165 7.49393 4.06682L5.5457 6.01505C5.05349 6.50726 4.89723 6.67034 4.78742 6.84952C4.68051 7.02399 4.60172 7.2142 4.55395 7.41317C4.50489 7.61752 4.50007 7.84333 4.50007 8.53942V11.43C4.50007 12.1985 4.50066 12.7297 4.53437 13.1423C4.56736 13.5461 4.62832 13.7699 4.71261 13.9353C4.89956 14.3022 5.19787 14.6005 5.56479 14.7875C5.73022 14.8718 5.95394 14.9327 6.35779 14.9657C6.77039 14.9994 7.30162 15 8.07007 15H9.93007C10.6985 15 11.2297 14.9994 11.6423 14.9657C12.0462 14.9327 12.2699 14.8718 12.4353 14.7875C12.8023 14.6005 13.1006 14.3022 13.2875 13.9353C13.3718 13.7699 13.4328 13.5461 13.4658 13.1423C13.4995 12.7297 13.5001 12.1985 13.5001 11.43V8.53942C13.5001 7.84333 13.4952 7.61752 13.4462 7.41317C13.3984 7.2142 13.3196 7.02399 13.2127 6.84952C13.1029 6.67034 12.9466 6.50726 12.4544 6.01505L10.5062 4.06682C10.141 3.70165 9.89864 3.46008 9.69784 3.28962C9.50374 3.12483 9.39837 3.07099 9.32454 3.047ZM8.21208 1.62041C8.72423 1.454 9.27591 1.454 9.78806 1.62041C10.1252 1.72996 10.4036 1.92109 10.6686 2.14611C10.9217 2.36097 11.2073 2.6466 11.5457 2.985L11.5669 3.00616L13.2714 4.71073C13.2744 4.71364 13.2774 4.71657 13.2804 4.71954L17.0304 8.46954C17.3233 8.76243 17.3233 9.23731 17.0304 9.5302C16.7375 9.82309 16.2626 9.82309 15.9697 9.5302L15.0001 8.56053V11.43L15.0001 11.4617C15.0001 12.1909 15.0001 12.7835 14.9608 13.2644C14.9202 13.7611 14.834 14.2041 14.624 14.6163C14.2933 15.2654 13.7655 15.7932 13.1163 16.124C12.7042 16.334 12.2611 16.4202 11.7645 16.4607C11.2836 16.5 10.6909 16.5 9.96176 16.5H9.93007H8.07007H8.03838C7.30922 16.5 6.71655 16.5 6.23564 16.4607C5.73903 16.4202 5.29593 16.334 4.8838 16.124C4.23464 15.7932 3.70686 15.2654 3.3761 14.6163C3.16611 14.2041 3.07992 13.7611 3.03935 13.2644C3.00006 12.7835 3.00006 12.1909 3.00007 11.4618V11.43V8.56053L2.0304 9.5302C1.73751 9.82309 1.26264 9.82309 0.969742 9.5302C0.676849 9.23731 0.676849 8.76243 0.969742 8.46954L4.71974 4.71954C4.72272 4.71656 4.72573 4.7136 4.72875 4.71068L6.43327 3.00616L6.45441 2.98501C6.79281 2.6466 7.07842 2.36098 7.33153 2.14611C7.59658 1.92109 7.87492 1.72996 8.21208 1.62041Z" fill="#F03E3E"/>
<path fill-rule="evenodd" clip-rule="evenodd" d="M9.78806 1.62017C9.27591 1.45376 8.72423 1.45376 8.21207 1.62017C7.87491 1.72972 7.59658 1.92085 7.33153 2.14586C7.07841 2.36074 6.79279 2.64637 6.45439 2.98479L6.43327 3.00591L4.71974 4.71944L0.969744 8.46944C0.676849 8.76233 0.676849 9.23721 0.969744 9.5301C1.26264 9.823 1.73751 9.823 2.0304 9.5301L5.7804 5.78011L7.49393 4.06657C7.8591 3.70141 8.10149 3.45984 8.30229 3.28937C8.4964 3.12459 8.60177 3.07074 8.6756 3.04675C8.88649 2.97823 9.11365 2.97823 9.32453 3.04675C9.39837 3.07074 9.50374 3.12459 9.69784 3.28937C9.89864 3.45984 10.141 3.70141 10.5062 4.06657L12.2197 5.78011L15.9697 9.5301C16.2626 9.823 16.7375 9.823 17.0304 9.5301C17.3233 9.23721 17.3233 8.76233 17.0304 8.46944L13.2804 4.71944L11.5669 3.00591L11.5457 2.98475C11.2073 2.64635 10.9217 2.36073 10.6686 2.14586C10.4036 1.92085 10.1252 1.72972 9.78806 1.62017Z" fill="#F03E3E"/>
</svg>

<svg width="18" height="18" fill="none" xmlns="http://www.w3.org/2000/svg"><path fill-rule="evenodd" clip-rule="evenodd" d="M9.325 3.047a1.05 1.05 0 0 0-.65 0c-.073.024-.179.078-.373.243-.2.17-.443.412-.808.777L5.546 6.015c-.493.492-.649.655-.759.835a1.95 1.95 0 0 0-.233.563c-.05.205-.054.43-.054 1.126v2.891c0 .768 0 1.3.034 1.712.033.404.094.628.179.793.187.367.485.665.852.852.165.085.389.146.793.179.412.033.944.034 1.712.034h1.86c.768 0 1.3 0 1.712-.034.404-.033.628-.094.793-.178a1.95 1.95 0 0 0 .852-.853c.085-.165.146-.389.179-.793.034-.412.034-.944.034-1.712V8.54c0-.697-.005-.922-.054-1.127a1.951 1.951 0 0 0-.233-.563c-.11-.18-.266-.343-.759-.835l-1.948-1.948a15.416 15.416 0 0 0-.808-.777c-.194-.165-.3-.219-.373-.243ZM8.212 1.62a2.55 2.55 0 0 1 1.576 0c.337.11.616.301.88.526.254.215.54.5.878.839l.02.021 1.705 1.705.01.009 3.75 3.75a.75.75 0 1 1-1.061 1.06L15 8.56v2.902c0 .729 0 1.322-.04 1.802-.04.497-.126.94-.336 1.352a3.45 3.45 0 0 1-1.508 1.508c-.412.21-.855.296-1.351.337-.481.039-1.074.039-1.803.039H8.038c-.729 0-1.321 0-1.802-.04-.497-.04-.94-.126-1.352-.336a3.45 3.45 0 0 1-1.508-1.508c-.21-.412-.296-.855-.337-1.352C3 12.784 3 12.191 3 11.462V8.56l-.97.97A.75.75 0 0 1 .97 8.47l3.75-3.75a.752.752 0 0 1 .009-.01l1.704-1.704.021-.021c.339-.338.624-.624.878-.839.265-.225.543-.416.88-.526Z" fill="#F03E3E"/><path fill-rule="evenodd" clip-rule="evenodd" d="M9.788 1.62a2.55 2.55 0 0 0-1.576 0c-.337.11-.615.3-.88.526-.254.215-.54.5-.878.839l-.02.02L4.72 4.72.97 8.47a.75.75 0 1 0 1.06 1.06l3.75-3.75 1.714-1.713c.365-.366.607-.607.808-.778.194-.164.3-.218.374-.242a1.05 1.05 0 0 1 .649 0c.073.024.179.078.373.242.2.17.443.412.808.778L12.22 5.78l3.75 3.75a.75.75 0 0 0 1.06-1.06l-3.75-3.75-1.713-1.714-.021-.021c-.339-.339-.624-.624-.877-.84-.265-.224-.544-.415-.88-.525Z" fill="#F03E3E"/></svg>
